X: 10
T:ROND DE LOUDEAC 4
M:4/4
L:1/8
Q:1/4=150
Z:Yves Belotteau
K:C
|Aeee dcB3/2 z/2 |e3/2 z/2 ee dcB3/2 z/2 |Aeee dcB3/2 z/2 |e3/2 z/2 ee d
cB3/2 z/2 |
A3/2 z/2 Bc dBe3/2 z/2 |efed cBA3/2 z/2 |A3/2 z/2 Bc dBe3/2 z/2 |efed cB
A3/2|
W:
W: From "Falaleiro" http://home.t-online.de/home/pheld/homepage.htm
